desc: fractional circular FFT delay

import _core.jsfx-inc
import _fft.jsfx-inc
import _fir.jsfx-inc

@init

k1.array_init (128);
k2.array_init (128);

// Analytical shift
set_sinc_lowpass (k1, 0.9, 0.5);
apply_kaiser_window (k1, kaiser_beta_estimate (90), 0.5);

// FFT shift
set_sinc_lowpass (k2, 0.9, 0);
apply_kaiser_window (k2, kaiser_beta_estimate (90), 0);
fft_circ_shift (k2, 32 * 1024, -0.5);

k1v.debug_16 (k1 + k1.size / 2 - 8, 16);
k2v.debug_16 (k2 + k2.size / 2 - 8, 16);
