desc:Rafa random test

slider1:freq=20<20, 20000, 0.001>freq

in_pin:left input
in_pin:right input
out_pin:left output
out_pin:right output

import _core.jsfx-inc
import _filters.jsfx-inc
import _reverb.jsfx-inc


@slider

l.thiran1_reset (freq, srate);
r.tpt_1p_reset (freq, srate);

@sample

spl1 = l.thiran1_tick (spl1);
spl0 = r.tpt_1p_tick_ap (spl0);
