desc:Rafa random test

slider1:freq=20<20, 20000, 0.001>freq

in_pin:left input
in_pin:right input
out_pin:left output
out_pin:right output

import _core.jsfx-inc
import _filters.jsfx-inc
import _reverb.jsfx-inc


@slider

l.thiran1_reset (freq, srate);
r.thiran1_reset (freq, srate);

@sample

spl0 = l.thiran1_tick (spl0);
//spl1 = r.thiran1_tick (spl1);
