desc:Rafa random test

slider1:freq=20<20, 20000, 0.001>freq
slider2:q=1<0.1, 1400, 0.001>mix

in_pin:left input
in_pin:right input
out_pin:left output
out_pin:right output

import _core.jsfx-inc
import _filters.jsfx-inc
import _reverb.jsfx-inc


@slider

l.svf_notch (freq, q, srate);
r.svf_notch (freq, q, srate);

@sample

spl0 = r.svf_tick (spl0);
spl1 = l.svf_tick(spl0);

